X:1
T:Jesus Only, Let Me See
T:Daniel Brink Towner
T:Jesus Only, Let Me See
T:Public Domain
T:Public Domain
C:Daniel Brink Towner
Z:Public Domain
%%score ( 1 2 ) ( 3 4 )
L:1/8
M:4/4
K:F
V:1 treble 
V:2 treble 
V:3 bass 
V:4 bass 
V:1
 [FA]2 [FG]2 [FB]2 [FA]2 | [FA]2 [CG]2 [CF]4 | [CF]2 [CE]2 [CG]2 [CF]2 | [FA]2 [FG]2 [EG]4 | %4
w: 1.~For sal- va- tion|full and free,|Pur- chased once on|Cal- va- ry,|
w: 2.~He my Guide from|day to day,|As I jour- ney|on life’s way;|
w: 3.~May my mod- el|ev- er be|Christ the Lord, and|none save He,|
w: 4.~He shall reign from|shore to shore,|His the glo- ry|ev- er- more—|
 [FA]2 [FG]2 [FB]2 [FA]2 | [DG]2 [DF]2 [B,D]4 | [A,C]2 [CF]2 [FA]2 [Fd]2 | [EG]4 F4 || %8
w: Christ a- lone shall|be my plea—|Je- sus! Je- sus|on- ly.|
w: Close be- side Him|let me stay—|Je- sus! Je- sus|on- ly.|
w: That the world may|see in me|Je- sus! Je- sus|on- ly.|
w: Heav’n and earth shall|bow be- fore|Je- sus! Je- sus|on- ly.|
"^Refrain" [Fc]3 [F=B] [Fd]2 [Fc]2 | [Fc]2 [F=B]2 [E_B]4 | [EB]3 [EA] [Ec]2 [EB]2 | %11
w: |||
w: sus on- ly, let|me see, Je-|sus on- ly, none|
w: |||
w: |||
 [FB]2 [FA]2 [FA]4 | [FA]3 [FA] [FB]2 [FA]2 | [DG]2 [DF]2 ([CE]2 [B,D]2) | %14
w: |||
w: save He, Then|my song shall ev-|er be— Je- *|
w: |||
w: |||
 [A,C]2 [CF]2 [FA]2 [Fc]2 | [EG]4 F4 |] %16
w: ||
w: sus! Je- sus on-|ly! *|
w: ||
w: ||
V:2
 x8 | x8 | x8 | x8 | x8 | x8 | x8 | x4 F4 || x8 | x8 | x8 | x8 | x8 | x8 | x8 | x4 F4 |] %16
w: ||||||||||||||||
w: |||||||Je-|||||||||
V:3
 [F,C]2 [F,B,]2 [F,D]2 [F,C]2 | [C,C]2 [C,B,]2 [F,A,]4 | [C,A,]2 [C,G,]2 [F,B,]2 [F,A,]2 | %3
 [G,=B,]2 [G,B,]2 [C,C]4 | [F,C]2 [F,B,]2 [F,D]2 [F,C]2 | [B,,B,]2 [B,,B,]2 [B,,F,]4 | %6
 [C,F,]2 [C,A,]2 [C,C]2 [C,A,]2 | (C2 B,2) [F,A,]4 || [F,A,]3 [F,^G,] [F,B,]2 [F,A,]2 | %9
 [C,A,]2 [C,^G,]2 [C,=G,]4 | [C,G,]3 [C,^F,] [C,A,]2 [C,G,]2 | [F,D]2 [F,C]2 [F,C]4 | %12
 [F,C]3 [F,C] [F,D]2 [F,C]2 | [B,,B,]2 [B,,B,]2 [B,,F,]4 | [C,F,]2 [C,A,]2 [C,C]2 [C,A,]2 | %15
 (C2 B,2) [F,A,]4 |] %16
V:4
 x8 | x8 | x8 | x8 | x8 | x8 | x8 | C,4 x4 || x8 | x8 | x8 | x8 | x8 | x8 | x8 | C,4 x4 |] %16

